source/images/flags/by.svg

<svg xmlns="http://www.w3.org/2000/svg" height="480" width="640">
  <defs>
    <clipPath id="a">
      <path fill-opacity=".67" d="M0 0h682.6v512H0z"/>
    </clipPath>
  </defs>
  <g fill-rule="evenodd" clip-path="url(#a)" transform="matrix(.9376 0 0 .9375 0 0)">
    <path fill="#b20000" d="M0 0h1024v340.11H0z"/>
    <path fill="#429f00" d="M0 340.11h1024V512H0z"/>
    <path fill="#fff" d="M0 0h113.37v512H0z"/>
    <g stroke-width="1pt" fill="#b20000">
      <path d="M5.394 8.682h5.398v8.68H5.394zM21.59 8.682h16.196v8.68H21.59zM26.983 0h5.398v8.68h-5.397zM53.98 0h5.4v8.68h-5.4zM75.57 8.682h16.197v8.68H75.57zM80.98 0h5.398v8.68H80.98z"/>
      <path d="M16.196 17.36h10.798v8.68H16.196zM32.392 17.36H43.19v8.68H32.392zM70.177 17.36h10.798v8.68H70.177zM86.373 17.36H97.17v8.68H86.374zM10.787 26.04h10.798v8.678H10.787zM37.786 26.04h10.797v8.678H37.786zM64.784 26.04H75.58v8.678H64.785zM91.767 26.04h10.797v8.678H91.767zM102.57 8.682h5.397v8.68h-5.398zM5.394 34.718h10.798v8.678H5.394zM43.18 34.718h10.797v8.678H43.18zM97.175 34.718h10.798v8.678H97.175zM10.787 60.75h10.798v8.68H10.787zM16.196 69.43h10.798v8.677H16.196zM37.786 60.75h10.797v8.68H37.786zM32.392 69.43H43.19v8.677H32.392zM21.59 78.107h16.196v8.678H21.59z"/>
      <path d="M26.983 86.784h5.398v8.68h-5.397zM64.784 60.752H75.58v8.678H64.785zM70.177 69.43h10.798v8.677H70.177zM91.767 60.75h10.797v8.68H91.767zM86.373 69.43H97.17v8.677H86.374zM75.57 78.107h16.197v8.678H75.57z"/>
      <path d="M80.98 86.784h5.398v8.68H80.98zM53.98 78.107h5.4v8.678h-5.4zM0 78.107h5.398v8.678H0zM107.963 78.107h5.398v8.678h-5.397zM26.983 121.497h5.398v8.678h-5.397z"/>
      <path d="M21.59 130.174h16.196v8.678H21.59zM16.196 138.852H43.19v8.678H16.196zM80.98 121.497h5.398v8.678H80.98z"/>
      <path d="M75.57 130.174h16.197v8.678H75.57zM70.177 138.852H97.17v8.678H70.178zM75.57 182.242h26.994v8.678H75.57zM64.784 147.53h37.79v8.68h-37.79zM10.787 147.53h37.79v8.68h-37.79zM16.196 190.92h16.196v8.678H16.196zM10.787 182.242H37.78v8.678H10.788zM86.373 164.886h26.994v8.678H86.373zM80.98 190.92h16.195v8.678H80.98z"/>
      <path d="M21.59 199.597h5.398v8.68H21.59zM86.373 199.597h5.398v8.68h-5.397zM0 164.886h26.994v8.678H0zM48.588 182.242h16.196v8.678H48.588zM53.98 190.92h5.4v8.678h-5.4zM37.786 164.886h37.79v8.678h-37.79zM59.375 34.718h10.798v8.678H59.375z"/>
      <path d="M48.588 43.395h16.196v8.678H48.588z"/>
      <path d="M43.18 52.073h10.797v8.68H43.18zM59.375 52.073h10.798v8.68H59.375zM0 43.395h10.798v8.678H0z"/>
      <path d="M5.394 52.073h10.798v8.68H5.394zM102.57 43.395h10.797v8.678H102.57z"/>
      <path d="M97.175 52.073h10.798v8.68H97.175zM0 130.174h5.398v8.678H0zM107.963 130.174h5.398v8.678h-5.397zM48.588 199.597h16.196v8.68H48.588z"/>
      <path d="M43.18 208.276h10.797v8.678H43.18zM59.375 208.276h10.798v8.678H59.375zM37.786 216.954h10.797v8.678H37.786zM64.784 216.954H75.58v8.678H64.785z"/>
      <path d="M32.392 225.63H43.19v8.68H32.392zM70.177 225.63h10.798v8.68H70.177zM26.983 234.31H37.78v8.678H26.984zM75.57 234.31h10.8v8.678h-10.8z"/>
      <path d="M16.196 242.987h16.196v8.678H16.196zM80.98 242.987h16.195v8.678H80.98z"/>
      <path d="M91.767 234.31h10.797v8.678H91.767zM97.175 225.63h10.798v8.68H97.175z"/>
      <path d="M102.57 216.954h10.797v8.678H102.57zM10.787 234.31h10.798v8.678H10.787zM5.394 225.63h10.798v8.68H5.394z"/>
      <path d="M0 216.954h10.798v8.678H0zM21.59 251.665h5.398v8.678H21.59zM86.373 251.665h5.398v8.678h-5.397zM53.98 225.63h5.4v8.68h-5.4zM37.786 251.665h5.398v8.678h-5.398zM70.177 251.665h5.398v8.678h-5.398zM53.98 251.665h5.4v8.678h-5.4zM0 251.665h5.398v8.678H0zM107.963 251.665h5.398v8.678h-5.397zM53.98 130.174h5.4v8.678h-5.4zM26.983 43.395h5.398v8.678h-5.397zM80.98 43.395h5.398v8.678H80.98zM48.588 104.14h16.196v8.68H48.588z"/>
      <path d="M37.786 112.818H53.98v8.68H37.787z"/>
      <path d="M43.18 121.497h5.397v8.678H43.18zM32.392 104.14H43.19v8.68H32.392z"/>
      <path d="M37.786 95.463H53.98v8.678H37.787z"/>
      <path d="M43.18 86.784h5.397v8.68H43.18zM59.375 95.463H75.57v8.678H59.376z"/>
      <path d="M64.784 86.784h5.398v8.68h-5.398zM70.177 104.14h10.798v8.68H70.177z"/>
      <path d="M59.375 112.818H75.57v8.68H59.376z"/>
      <path d="M64.784 121.497h5.398v8.678h-5.398zM86.373 104.14H97.17v8.68H86.374z"/>
      <path d="M91.767 95.463h16.196v8.678H91.767z"/>
      <path d="M102.57 104.14h10.797v8.68H102.57z"/>
      <path d="M91.767 112.818h16.196v8.68H91.767z"/>
      <path d="M97.175 121.497h5.4v8.678h-5.4zM97.175 86.784h5.4v8.68h-5.4zM0 104.14h10.798v8.68H0z"/>
      <path d="M5.394 95.463H21.59v8.678H5.394z"/>
      <path d="M16.196 104.14h10.798v8.68H16.196z"/>
      <path d="M5.394 112.818H21.59v8.68H5.394z"/>
      <path d="M10.787 121.497h5.398v8.678h-5.398zM10.787 86.784h5.398v8.68h-5.398zM5.394 156.208h21.594v8.678H5.394zM32.392 156.208h21.594v8.678H32.392zM59.375 156.208H80.97v8.678H59.374zM86.373 156.208h21.594v8.678H86.373zM43.18 173.563h26.993v8.68H43.18zM5.394 173.563h26.993v8.68H5.394zM80.98 173.563h26.993v8.68H80.98zM107.963 208.276h5.398v8.678h-5.397zM0 208.276h5.398v8.678H0zM5.394 503.327h5.398v-8.678H5.394zM21.59 503.327h16.196v-8.678H21.59z"/>
      <path d="M26.983 511.997h5.398v-8.678h-5.397zM53.98 511.997h5.4v-8.678h-5.4zM75.57 503.327h16.197v-8.678H75.57z"/>
      <path d="M80.98 511.997h5.398v-8.678H80.98zM16.196 494.645h10.798v-8.678H16.196zM32.392 494.645H43.19v-8.678H32.392zM70.177 494.645h10.798v-8.678H70.177zM86.373 494.645H97.17v-8.678H86.374zM37.786 485.963h10.797v-8.678H37.786zM64.784 485.963H75.58v-8.678H64.785zM91.767 485.963h10.797v-8.678H91.767zM102.57 503.327h5.397v-8.678h-5.398zM5.394 477.293h10.798v-8.678H5.394z"/>
      <path d="M43.18 477.293h10.797v-8.678H43.18zM97.175 477.293h10.798v-8.678H97.175zM10.787 451.26h10.798v-8.68H10.787zM16.196 442.577h10.798V433.9H16.196zM37.786 451.26h10.797v-8.68H37.786zM32.392 442.577H43.19V433.9H32.392zM21.59 433.895h16.196v-8.678H21.59z"/>
      <path d="M26.983 425.225h5.398v-8.678h-5.397zM64.784 451.26H75.58v-8.68H64.785zM70.177 442.577h10.798V433.9H70.177zM91.767 451.26h10.797v-8.68H91.767zM86.373 442.577H97.17V433.9H86.374zM75.57 433.895h16.197v-8.678H75.57z"/>
      <path d="M80.98 425.225h5.398v-8.678H80.98zM53.98 433.895h5.4v-8.678h-5.4zM0 433.895h5.398v-8.678H0zM107.963 433.895h5.398v-8.678h-5.397zM26.983 390.51h5.398v-8.68h-5.397z"/>
      <path d="M21.59 381.84h16.196v-8.68H21.59zM16.196 373.158H43.19v-8.68H16.196zM80.98 390.51h5.398v-8.68H80.98z"/>
      <path d="M75.57 381.84h16.197v-8.68H75.57zM70.177 373.158H97.17v-8.68H70.178zM75.57 329.772h26.994v-8.68H75.57zM64.784 364.475h37.79v-8.678h-37.79zM10.787 364.475h37.79v-8.678h-37.79zM16.196 321.09h16.196v-8.682H16.196zM10.787 329.772H37.78v-8.68H10.788zM86.373 347.124h26.994v-8.68H86.373zM80.98 321.09h16.195v-8.68H80.98zM0 347.124h26.994v-8.68H0zM48.588 329.772h16.196v-8.68H48.588zM53.98 321.09h5.4v-8.68h-5.4zM37.786 347.124h37.79v-8.68h-37.79zM59.375 477.293h10.798v-8.678H59.375zM48.588 468.61h16.196v-8.677H48.588zM43.18 459.93h10.797v-8.68H43.18zM59.375 459.93h10.798v-8.68H59.375zM0 468.61h10.798v-8.677H0zM5.394 459.93h10.798v-8.68H5.394zM102.57 468.61h10.797v-8.677H102.57zM97.175 459.93h10.798v-8.68H97.175zM0 381.84h5.398v-8.68H0zM107.963 381.84h5.398v-8.68h-5.397zM43.18 303.738h10.797v-8.68H43.18zM59.375 303.738h10.798v-8.68H59.375zM37.786 295.056h10.797v-8.68H37.786zM64.784 295.056H75.58v-8.68H64.785zM32.392 286.374H43.19v-8.68H32.392zM70.177 286.374h10.798v-8.68H70.177z"/>
      <path d="M26.983 277.704H37.78v-8.68H26.984zM75.57 277.704h10.8v-8.68h-10.8zM16.196 269.022h16.196v-8.68H16.196zM80.98 269.022h16.195v-8.68H80.98zM91.767 277.704h10.797v-8.68H91.767z"/>
      <path d="M97.175 286.374h10.798v-8.68H97.175zM102.57 295.056h10.797v-8.68H102.57zM10.787 277.704h10.798v-8.68H10.787z"/>
      <path d="M5.394 286.374h10.798v-8.68H5.394zM0 295.056h10.798v-8.68H0zM21.59 260.343h5.398v-8.678H21.59zM53.98 286.374h5.4v-8.68h-5.4zM53.98 381.84h5.4v-8.68h-5.4zM26.983 468.61h5.398v-8.677h-5.397zM80.98 468.61h5.398v-8.677H80.98zM48.588 407.873h16.196v-8.678H48.588zM37.786 399.19H53.98v-8.677H37.787zM43.18 390.51h5.397v-8.68H43.18zM32.392 407.873H43.19v-8.678H32.392z"/>
      <path d="M37.786 416.543H53.98v-8.678H37.787zM43.18 425.225h5.397v-8.678H43.18zM59.375 416.543H75.57v-8.678H59.376zM64.784 425.225h5.398v-8.678h-5.398z"/>
      <path d="M70.177 407.873h10.798v-8.678H70.177zM59.375 399.19H75.57v-8.677H59.376zM64.784 390.51h5.398v-8.68h-5.398zM86.373 407.873H97.17v-8.678H86.374z"/>
      <path d="M91.767 416.543h16.196v-8.678H91.767z"/>
      <path d="M102.57 407.873h10.797v-8.678H102.57zM91.767 399.19h16.196v-8.677H91.767zM97.175 390.51h5.4v-8.68h-5.4zM97.175 425.225h5.4v-8.678h-5.4zM0 407.873h10.798v-8.678H0z"/>
      <path d="M5.394 416.543H21.59v-8.678H5.394z"/>
      <path d="M16.196 407.873h10.798v-8.678H16.196zM5.394 399.19H21.59v-8.677H5.394zM10.787 390.51h5.398v-8.68h-5.398zM10.787 425.225h5.398v-8.678h-5.398zM5.394 355.806h21.594v-8.68H5.394zM32.392 355.806h21.594v-8.68H32.392zM59.375 355.806H80.97v-8.68H59.374zM86.373 355.806h21.594v-8.68H86.373zM43.18 338.442h26.993v-8.68H43.18zM5.394 338.442h26.993v-8.68H5.394zM80.98 338.442h26.993v-8.68H80.98zM107.963 303.738h5.398v-8.68h-5.397zM0 303.738h5.398v-8.68H0zM48.588 260.343h5.398v8.68h-5.398zM59.375 260.343h5.398v8.68h-5.398zM59.375 242.987h5.398v8.678h-5.398zM48.588 242.987h5.398v8.678h-5.398zM10.787 477.293h10.798v8.68H10.787zM86.373 312.408h5.398v-8.68h-5.397zM21.59 312.408h5.398v-8.68H21.59zM48.585 303.734H64.78v8.677H48.585z"/>
    </g>
  </g>
</svg>

<svg xmlns="http://www.w3.org/2000/svg" height="480" width="640"><defs><clipPath id="a"><path fill-opacity=".67" d="M0 0h682.6v512H0z"/></clipPath></defs><g fill-rule="evenodd" clip-path="url(#a)" transform="scale(.938)"><path fill="#b20000" d="M0 0h1024v340.1H0z"/><path fill="#429f00" d="M0 340.1h1024V512H0z"/><path fill="#fff" d="M0 0h113.37v512H0z"/><g stroke-width="1pt" fill="#b20000"><path d="M5.4 8.68h5.4v8.68H5.4zm16.2 0h16.2v8.68H21.6zM26.97 0h5.4v8.68h-5.4zm27 0h5.4v8.68h-5.4zm21.6 8.68h16.2v8.68h-16.2zM80.97 0h5.4v8.68h-5.4zM16.2 17.36H27v8.68H16.2zm16.2 0h10.8v8.68H32.4zm37.78 0h10.8v8.68h-10.8zm16.2 0h10.8v8.68h-10.8zm-75.6 8.68h10.8v8.68H10.8zm27 0h10.8v8.68h-10.8zm27 0h10.8v8.68h-10.8zm27 0h10.78v8.68h-10.8zm10.8-17.36h5.4v8.68h-5.4zM5.37 34.72h10.8v8.68H5.4zm37.8 0h10.8v8.68h-10.8zm54 0h10.8v8.68h-10.8zm-86.4 26.03h10.8v8.68H10.8zm5.42 8.68H27v8.68H16.2zm21.6-8.68h10.78v8.68h-10.8zm-5.4 8.68h10.8v8.68H32.4zM21.6 78.1h16.2v8.7H21.6z"/><path d="M26.98 86.78h5.4v8.68h-5.4zm37.8-26.03h10.8v8.68h-10.8zm5.4 8.68h10.8v8.68h-10.8zm21.6-8.68h10.78v8.68h-10.8zm-5.4 8.68h10.8v8.68h-10.8zm-10.8 8.68h16.2v8.7h-16.2z"/><path d="M80.98 86.78h5.4v8.68h-5.4zm-27-8.67h5.4v8.7h-5.4zM0 78.1h5.4v8.7H0zm107.96 0h5.4v8.7h-5.4zm-80.98 43.4h5.4v8.68h-5.4z"/><path d="M21.6 130.17h16.2v8.68H21.6zm-5.4 8.68h27v8.68h-27zm64.78-17.35h5.4v8.68h-5.4z"/><path d="M75.57 130.17h16.2v8.68h-16.2zm-5.4 8.68h27v8.68h-27zm5.4 43.4h27v8.67h-27zm-10.8-34.72h37.8v8.68h-37.8zm-53.98 0h37.78v8.68h-37.8zm5.4 43.4h16.2v8.67H16.2zm-5.4-8.7h26.98v8.7h-27zm75.57-17.34h27v8.66h-27zm-5.4 26.02h16.2v8.68h-16.2zM21.6 199.6H27v8.68h-5.4zm64.77 0h5.4v8.68h-5.4zM0 164.9h27v8.66H0zm48.6 17.34h16.18v8.68h-16.2zm5.38 8.68h5.4v8.68h-5.4zm-16.2-26.03h37.8v8.66h-37.8zM59.4 34.7h10.8v8.68h-10.8zM48.6 43.4h16.18v8.67h-16.2zM43.18 52.07h10.8v8.68h-10.8zm16.2 0h10.8v8.68h-10.8zM0 43.4h10.8v8.67H0zM5.4 52.07h10.8v8.68H5.4zm97.17-8.67h10.8v8.67h-10.8z"/><path d="M97.17 52.07h10.8v8.68h-10.8zM0 130.17h5.4v8.68H0zm107.96 0h5.4v8.68h-5.4zM48.6 199.6h16.18v8.68h-16.2zM43.18 208.28h10.8v8.67h-10.8zm16.2 0h10.8v8.67h-10.8zm-21.6 8.67h10.8v8.68h-10.8zm27 0h10.8v8.68h-10.8zM32.4 225.63h10.8v8.68H32.4zm37.78 0h10.8v8.68h-10.8zm-43.2 8.68h10.8v8.7h-10.8zm48.6 0h10.8v8.7h-10.8z"/><path d="M16.2 243h16.2v8.66H16.2zm64.78 0h16.2v8.66h-16.2zM91.77 234.3h10.8v8.7h-10.8zm5.4-8.67h10.8v8.68h-10.8zM102.57 216.95h10.8v8.68h-10.8zM10.8 234.3h10.8v8.7H10.8zm-5.4-8.67h10.8v8.68H5.4zM0 216.95h10.8v8.68H0zm21.6 34.72H27v8.67h-5.4zm64.77 0h5.4v8.67h-5.4zm-32.4-26.04h5.4v8.68h-5.4zM37.8 251.66h5.38v8.68h-5.4zm32.38 0h5.4v8.68h-5.4zm-16.2 0h5.4v8.68h-5.4zm-53.98 0h5.4v8.68H0zm107.96 0h5.4v8.68h-5.4zm-53.98-121.5h5.4v8.7h-5.4zm-27-86.76h5.4v8.67h-5.4zm54 0h5.4v8.67h-5.4zm-32.4 60.74h16.2v8.68h-16.2zM37.8 112.82h16.18v8.68h-16.2zM43.18 121.5h5.4v8.68h-5.4zm-10.8-17.36h10.8v8.68H32.4zM37.8 95.46h16.18v8.68h-16.2z"/><path d="M43.18 86.78h5.4v8.68h-5.4zm16.2 8.68h16.2v8.68h-16.2z"/><path d="M64.78 86.78h5.4v8.68h-5.4zm5.4 17.36h10.8v8.68h-10.8zM59.38 112.82h16.2v8.68h-16.2zM64.78 121.5h5.4v8.68h-5.4zm21.6-17.36h10.8v8.68h-10.8zM91.77 95.46h16.2v8.68h-16.2zM102.57 104.14h10.8v8.68h-10.8zM91.77 112.82h16.2v8.68h-16.2z"/><path d="M97.17 121.5h5.4v8.68h-5.4zm0-34.72h5.4v8.68h-5.4zM0 104.14h10.8v8.68H0zM5.4 95.46h16.2v8.68H5.4zM16.2 104.14H27v8.68H16.2zM5.4 112.82h16.2v8.68H5.4z"/><path d="M10.8 121.5h5.38v8.68h-5.4zm0-34.72h5.38v8.68h-5.4zM5.4 156.2H27v8.7H5.4zm27 0H54v8.7H32.4zm26.98 0h21.6v8.7h-21.6zm27 0h21.6v8.7h-21.6zm-43.2 17.36h27v8.68h-27zm-37.8 0h27v8.68h-27zm75.6 0h27v8.68h-27zm26.98 34.72h5.4v8.67h-5.4zM0 208.28h5.4v8.67H0zm5.4 295.05h5.4v-8.68H5.4zm16.2 0h16.2v-8.68H21.6z"/><path d="M26.98 512h5.4v-8.68h-5.4zm27 0h5.4v-8.68h-5.4zm21.6-8.67h16.2v-8.68h-16.2z"/><path d="M80.98 512h5.4v-8.68h-5.4zM16.2 494.64H27v-8.67H16.2zm16.2 0h10.8v-8.67H32.4zm37.78 0h10.8v-8.67h-10.8zm16.2 0h10.8v-8.67h-10.8zm-48.6-8.68h10.8v-8.67h-10.8zm27 0h10.8v-8.67h-10.8zm27 0h10.78v-8.67h-10.8zm10.8 17.37h5.4v-8.68h-5.4zM5.37 477.3h10.8v-8.7H5.4z"/><path d="M43.18 477.3h10.8v-8.7h-10.8zm54 0h10.8v-8.7h-10.8zm-86.4-26.04h10.8v-8.68H10.8zm5.42-8.68H27v-8.68H16.2zm21.6 8.68h10.78v-8.68h-10.8zm-5.4-8.68h10.8v-8.68H32.4zm-10.8-8.7h16.2v-8.66H21.6z"/><path d="M26.98 425.23h5.4v-8.68h-5.4zm37.8 26.03h10.8v-8.68h-10.8zm5.4-8.68h10.8v-8.68h-10.8zm21.6 8.68h10.78v-8.68h-10.8zm-5.4-8.68h10.8v-8.68h-10.8zm-10.8-8.7h16.2v-8.66h-16.2z"/><path d="M80.98 425.23h5.4v-8.68h-5.4zm-27 8.66h5.4v-8.68h-5.4zM0 433.9h5.4v-8.68H0zm107.96 0h5.4v-8.68h-5.4zm-80.98-43.4h5.4v-8.67h-5.4z"/><path d="M21.6 381.84h16.2v-8.68H21.6zm-5.4-8.68h27v-8.68h-27zm64.78 17.35h5.4v-8.67h-5.4z"/><path d="M75.57 381.84h16.2v-8.68h-16.2zm-5.4-8.68h27v-8.68h-27zm5.4-43.4h27v-8.67h-27zm-10.8 34.72h37.8v-8.68h-37.8zm-53.98 0h37.78v-8.68h-37.8zm5.4-43.4h16.2v-8.67H16.2zm-5.4 8.7h26.98v-8.7h-27zm75.57 17.34h27v-8.68h-27zm-5.4-26.03h16.2v-8.7h-16.2zM0 347.1h27v-8.68H0zm48.6-17.35h16.18v-8.68h-16.2zm5.38-8.68h5.4v-8.7h-5.4zm-16.2 26.02h37.8v-8.68h-37.8zM59.4 477.3h10.8v-8.7h-10.8zm-10.8-8.7h16.2v-8.67h-16.2zm-5.4-8.67h10.8v-8.68h-10.8zm16.2 0h10.8v-8.68h-10.8zM0 468.6h10.8v-8.67H0zm5.4-8.67h10.8v-8.68H5.4zm97.17 8.68h10.8v-8.67h-10.8zm-5.4-8.67h10.8v-8.68h-10.8zM0 381.83h5.4v-8.67H0zm107.96 0h5.4v-8.67h-5.4zm-64.78-78.1h10.8v-8.67h-10.8zm16.2 0h10.8v-8.67h-10.8zm-21.6-8.67h10.8v-8.68h-10.8zm27 0h10.8v-8.68h-10.8zm-32.4-8.7h10.8v-8.67H32.4zm37.8 0h10.8v-8.67h-10.8z"/><path d="M26.98 277.7h10.8v-8.68h-10.8zm48.6 0h10.8v-8.68h-10.8zm-59.38-8.68h16.2v-8.68H16.2zm64.78 0h16.2v-8.68h-16.2zm10.8 8.68h10.78v-8.68h-10.8z"/><path d="M97.17 286.37h10.8v-8.68h-10.8zm5.4 8.7h10.8v-8.7h-10.8zM10.8 277.7h10.8v-8.68H10.8z"/><path d="M5.4 286.37h10.8v-8.68H5.4zm-5.4 8.7h10.8v-8.7H0zm21.6-34.73H27v-8.67h-5.4zm32.38 26.03h5.4v-8.68h-5.4zm0 95.47h5.4v-8.68h-5.4zm-27 86.77h5.4v-8.67h-5.4zm54 0h5.4v-8.67h-5.4zm-32.4-60.73h16.2v-8.68h-16.2zm-10.8-8.68H54v-8.7h-16.2zm5.4-8.7h5.4v-8.67h-5.4zm-10.8 17.37h10.8v-8.68H32.4z"/><path d="M37.8 416.54h16.18v-8.68h-16.2zm5.38 8.7h5.4v-8.7h-5.4zm16.2-8.7h16.2v-8.68h-16.2zm5.4 8.7h5.4v-8.7h-5.4z"/><path d="M70.18 407.87h10.8v-8.68h-10.8zm-10.8-8.68h16.2v-8.7h-16.2zm5.4-8.7h5.4v-8.67h-5.4zm21.6 17.37h10.8v-8.68h-10.8zM91.77 416.54h16.2v-8.68h-16.2z"/><path d="M102.57 407.87h10.8v-8.68h-10.8zm-10.8-8.68h16.2v-8.7h-16.2zm5.4-8.7h5.4v-8.67h-5.4zm0 34.73h5.4v-8.68h-5.4zM0 407.87h10.8v-8.68H0z"/><path d="M5.4 416.54h16.2v-8.68H5.4z"/><path d="M16.2 407.87H27v-8.68H16.2zM5.4 399.2h16.2v-8.7H5.4zm5.4-8.7h5.38v-8.67h-5.4zm0 34.73h5.38v-8.68h-5.4zM5.4 355.8H27v-8.67H5.4zm27 0H54v-8.67H32.4zm26.98 0h21.6v-8.67h-21.6zm27 0h21.6v-8.67h-21.6zm-43.2-17.36h27v-8.68h-27zm-37.8 0h27v-8.68h-27zm75.6 0h27v-8.68h-27zm26.98-34.7h5.4v-8.68h-5.4zM0 303.74h5.4v-8.68H0zm48.6-43.4H54v8.68h-5.4zm10.77 0h5.4v8.68h-5.4zm0-17.35h5.4v8.66h-5.4zm-10.78 0H54v8.66h-5.4zM10.8 477.3h10.78v8.67h-10.8zm75.57-164.9h5.4v-8.67h-5.4zm-64.78 0H27v-8.67h-5.4zm26.98-8.67h16.2v8.68h-16.2z"/></g></g></svg>
